img/svg/logo.svg

<svg viewBox="0 0 60 60" fill="none" xmlns="http://www.w3.org/2000/svg">
<path fill-rule="evenodd" clip-rule="evenodd" d="M30 16.0001L46 27L37 44H33L31 40H29L27 44H23L14 27.0001L14 27H14.0002L30 16.0001L30 16L30 16.0001ZM30 16.0003L28 35.0001L24 27.0001H16L24 42H26L28 38H32L34 42H36L44 27H36L32 35L30 16.0003Z" fill="white"/>
<rect x="1" y="1" width="58" height="58" rx="29" stroke="white" stroke-width="2" fill="none" />
</svg>

<svg viewBox="0 0 60 60" fill="none" xmlns="http://www.w3.org/2000/svg"><path fill-rule="evenodd" clip-rule="evenodd" d="M30 16l16 11-9 17h-4l-2-4h-2l-2 4h-4l-9-17 16-11zm0 0l-2 19-4-8h-8l8 15h2l2-4h4l2 4h2l8-15h-8l-4 8-2-19z" fill="#fff"/><rect x="1" y="1" width="58" height="58" rx="29" stroke="#fff" stroke-width="2"/></svg>
